X: 81
T:Walts Parry
T:Parry's Waltz
M:3/4
L:1/8
Q:200
S:Cadw Twmpath Collection
R:Waltz
A:Wales
Z:brian_martin12345@yahoo.com
K:Em
B2|e2e^d ed|e2g2e2|b2a2f2|^d4B2|e2e^d ed|e2g2e2|B2^c2^d2|e4:||
^ab|B2B2^ab|B2B2^ab|B2BA GF|E4^ab|B2B2^ab|B2B2c2|Bc BA GF|E4:||
Bc|d2d2ef|g2g2ab|c'b ag fe|d4Bc|d2d2ef|g2g2e2|de dc BA|G4:||
